public/avatar/shoe/152.svg

<svg xmlns:xlink="http://www.w3.org/1999/xlink" height="38.3" width="36.05" xmlns="http://www.w3.org/2000/svg"><use height="28.35" transform="translate(14.55 .9)" width="20.4" xlink:href="#a"/><defs><g id="a" fill-rule="evenodd"><path d="M7.35 10.6q-3 4.8-10.85 3.5l-.7-.2-.05-1.85-.4 1.85h-.6l-3.45-1.65-.5-.35-.05-.55q-.2-6.25 3.3-9.2Q-3.6.15.1-.1l3.4.2.25.05L4 .3l1.75 2.3Q7.4 5.65 7.5 10.05v.3l-.15.25" fill="#0d090e" transform="translate(9.25 13.95)"/><path d="m3.3 1.1 1.5 2.05Q6.35 6 6.4 10.05q-2.6 4.2-9.65 3l-.6-4.2-1.4 4-2.95-1.55q-.25-7.9 5.6-9.8l5.9-.4" fill="#44423d" transform="translate(9.25 13.95)"/><path d="M7.1-12.9h-.05L7-12.95l.5.6.75 1.6q1.35 2.5 1.8 2.85l-1.2-.5 2.3 3.15-2.35.15q-.45 1.25-1.15 1.6l-2.6.3H4.4l.15 1.85q0 2.7-.9 4.1Q3 3.65 1.9 3.8q-2 .1-3.25-1.65Q-2.5.85-3.1.75l-1.35-.2.45-1.3.1-.5v-.15l-1.7.5 1.85-3.5.15-.25-1.4-.6.5-.5h-.25l.65-.5.15-.2 2.05-1.4h.15l1-.4-.95-1.25q-1.5-1.9-1.5-2.6 0-.8 1-1.25l4.6-.6q3.45 0 4.6 1l.1.05" fill="#0d090e" transform="translate(9.25 13.95)"/><path d="m6.55-11.9.7 1.5q.6 1.15 1.4 1.95l-1-.55.2 1.05q.8 1.45 1.4 1.85l-1.35.2q-.1 1.15-.6 1.4l-2.7.25q-1.5 0-1.3.65.35 1.5.1 3.6-.25 2.55-1.55 2.75Q.4 2.8-.5 1.55v.05Q-2-.35-3-.35q.35-.8.1-1.6-.25-.75-.6-.65 1.15-1.8 1.1-2.15l-.85-.9 1.8-1.2Q-1-7-1.15-7L.5-7.45q1.1-.15-2.65-4.65 0-.6 3.75-.75 3.8-.15 4.7.7l.25.25" fill="#795241" transform="translate(9.25 13.95)"/><path d="M.05-9.85q-1.3-2.5-.3-2.5l3.85.25q3.8 4.95 2.25 5.15-1.95.25-4.05-.4-.45-.05-1.75-2.5" fill="#442119" transform="translate(9.25 13.95)"/><path d="m6.3-12.15.25.25q.7 2 2.2 3.45L7.65-9 9.3-6.1q-1.05-.15-1.45.35l-.2.5-1.35-6.9M2.6-6.9l2.8.45-3.1.25q-3.25.55-3.5 2.1-.25 1.35.75 5.7Q-1.95-.35-3-.35q.35-.8.1-1.6-.25-.75-.55-.65 1.2-1.8 1.1-2.15l-.9-.9 1.85-1.2q1-.4 4-.05" fill="#b8957e" transform="translate(9.25 13.95)"/><path d="M-.85-7.15q-.55.25-.85-.25-.4-.45.45-.7l6.15 1-5.75-.05m7.15 3q-.2.55-1.25.95L2.9-3.25q-1.25-.4-.75-.7l4.15-.2" fill="#0d090e" transform="translate(9.25 13.95)"/><path d="M-7.9 11.15q.5-7.15 4.4-8.9-1.7.8-2.6 5.25l-.5 4.3-1.3-.65m13-.35q.75-3.3-.8-7.75l.85 2.3Q6 8 6 9.9q-.75 1.15-.9.9" fill="#a99d90" transform="translate(9.25 13.95)"/><path d="m3.3-3-.7 4.3q-.45.7-.6-5 .85.85 1.3.7" fill="#442119" transform="translate(9.25 13.95)"/></g></defs></svg>

<?xml version="1.0" encoding="UTF-8" standalone="no"?>
<svg xmlns:xlink="http://www.w3.org/1999/xlink" height="38.3px" width="36.05px" xmlns="http://www.w3.org/2000/svg">
  <g transform="matrix(1.0, 0.0, 0.0, 1.0, 23.8, 14.85)">
    <use height="28.35" transform="matrix(1.0, 0.0, 0.0, 1.0, -9.25, -13.95)" width="20.4" xlink:href="#shape0"/>
  </g>
  <defs>
    <g id="shape0" transform="matrix(1.0, 0.0, 0.0, 1.0, 9.25, 13.95)">
      <path d="M7.35 10.6 Q4.35 15.4 -3.5 14.1 L-4.2 13.9 -4.25 12.05 -4.65 13.9 -5.25 13.9 -8.7 12.25 -9.2 11.9 -9.25 11.35 Q-9.45 5.1 -5.95 2.15 -3.6 0.15 0.1 -0.1 L3.5 0.1 3.75 0.15 4.0 0.3 5.75 2.6 Q7.4 5.65 7.5 10.05 L7.5 10.35 7.35 10.6" fill="#0d090e" fill-rule="evenodd" stroke="none"/>
      <path d="M3.3 1.1 L4.8 3.15 Q6.35 6.0 6.4 10.05 3.8 14.25 -3.25 13.05 L-3.85 8.85 -5.25 12.85 -8.2 11.3 Q-8.45 3.4 -2.6 1.5 L3.3 1.1" fill="#44423d" fill-rule="evenodd" stroke="none"/>
      <path d="M7.1 -12.9 L7.05 -12.9 7.0 -12.95 7.5 -12.35 8.25 -10.75 Q9.6 -8.25 10.05 -7.9 L8.85 -8.4 11.15 -5.25 8.8 -5.1 Q8.35 -3.85 7.65 -3.5 L5.05 -3.2 4.4 -3.2 4.55 -1.35 Q4.55 1.35 3.65 2.75 3.0 3.65 1.9 3.8 -0.1 3.9 -1.35 2.15 -2.5 0.85 -3.1 0.75 L-4.45 0.55 -4.0 -0.75 -3.9 -1.25 -3.9 -1.4 -5.6 -0.9 -3.75 -4.4 -3.6 -4.65 -5.0 -5.25 -4.5 -5.75 -4.75 -5.75 -4.1 -6.25 -3.95 -6.45 -1.9 -7.85 -1.75 -7.85 -0.75 -8.25 -1.7 -9.5 Q-3.2 -11.4 -3.2 -12.1 -3.2 -12.9 -2.2 -13.35 L2.4 -13.95 Q5.85 -13.95 7.0 -12.95 L7.1 -12.9" fill="#0d090e" fill-rule="evenodd" stroke="none"/>
      <path d="M6.55 -11.9 L7.25 -10.4 Q7.85 -9.25 8.65 -8.45 L7.65 -9.0 7.85 -7.95 Q8.65 -6.5 9.25 -6.1 L7.9 -5.9 Q7.8 -4.75 7.3 -4.5 L4.6 -4.25 Q3.1 -4.25 3.3 -3.6 3.65 -2.1 3.4 0.0 3.15 2.55 1.85 2.75 0.4 2.8 -0.5 1.55 L-0.5 1.6 Q-2.0 -0.35 -3.0 -0.35 -2.65 -1.15 -2.9 -1.95 -3.15 -2.7 -3.5 -2.6 -2.35 -4.4 -2.4 -4.75 L-3.25 -5.65 -1.45 -6.85 Q-1.0 -7.0 -1.15 -7.0 L0.5 -7.45 Q1.6 -7.6 -2.15 -12.1 -2.15 -12.7 1.6 -12.85 5.4 -13.0 6.3 -12.15 L6.55 -11.9" fill="#795241" fill-rule="evenodd" stroke="none"/>
      <path d="M0.05 -9.85 Q-1.25 -12.35 -0.25 -12.35 L3.6 -12.1 Q7.4 -7.15 5.85 -6.95 3.9 -6.7 1.8 -7.35 1.35 -7.4 0.05 -9.85" fill="#442119" fill-rule="evenodd" stroke="none"/>
      <path d="M6.3 -12.15 L6.55 -11.9 Q7.25 -9.9 8.75 -8.45 L7.65 -9.0 9.3 -6.1 Q8.25 -6.25 7.85 -5.75 L7.65 -5.25 6.3 -12.15" fill="#b8957e" fill-rule="evenodd" stroke="none"/>
      <path d="M2.6 -6.9 L5.4 -6.45 2.3 -6.2 Q-0.95 -5.65 -1.2 -4.1 -1.45 -2.75 -0.45 1.6 -1.95 -0.35 -3.0 -0.35 -2.65 -1.15 -2.9 -1.95 -3.15 -2.7 -3.45 -2.6 -2.25 -4.4 -2.35 -4.75 L-3.25 -5.65 -1.4 -6.85 Q-0.4 -7.25 2.6 -6.9" fill="#b8957e" fill-rule="evenodd" stroke="none"/>
      <path d="M-0.85 -7.15 Q-1.4 -6.9 -1.7 -7.4 -2.1 -7.85 -1.25 -8.1 L4.9 -7.1 -0.85 -7.15" fill="#0d090e" fill-rule="evenodd" stroke="none"/>
      <path d="M6.3 -4.15 Q6.1 -3.6 5.05 -3.2 L2.9 -3.25 Q1.65 -3.65 2.15 -3.95 L6.3 -4.15" fill="#0d090e" fill-rule="evenodd" stroke="none"/>
      <path d="M-7.9 11.15 Q-7.4 4.0 -3.5 2.25 -5.2 3.05 -6.1 7.5 L-6.6 11.8 -7.9 11.15" fill="#a99d90" fill-rule="evenodd" stroke="none"/>
      <path d="M5.1 10.8 Q5.85 7.5 4.3 3.05 L5.15 5.35 Q6.0 8.0 6.0 9.9 5.25 11.05 5.1 10.8" fill="#a99d90" fill-rule="evenodd" stroke="none"/>
      <path d="M3.3 -3.0 L2.6 1.3 Q2.15 2.0 2.0 -3.7 2.85 -2.85 3.3 -3.0" fill="#442119" fill-rule="evenodd" stroke="none"/>
    </g>
  </defs>
</svg>
